Papirus/22x22/panel/lookit-panel.svg

<?xml version="1.0" encoding="UTF-8" standalone="no"?>
<svg xmlns:dc="http://purl.org/dc/elements/1.1/" xmlns:cc="http://creativecommons.org/ns#" xmlns:rdf="http://www.w3.org/1999/02/22-rdf-syntax-ns#" xmlns:svg="http://www.w3.org/2000/svg" xmlns="http://www.w3.org/2000/svg" id="svg2" viewBox="0 0 22 22" version="1.1" width="22" height="22">
    <metadata id="metadata14">
        <rdf:RDF>
            <cc:Work rdf:about="">
                <dc:format>
                    image/svg+xml
                </dc:format>
                <dc:type rdf:resource="http://purl.org/dc/dcmitype/StillImage"/>
                <dc:title/>
            </cc:Work>
        </rdf:RDF>
    </metadata>
    <path id="path6" d="M 11 3 C 6.5936 3 3 6.5936 3 11 C 3 13.968 4.6340219 16.561406 7.0449219 17.941406 C 7.0186219 17.797406 7 17.651 7 17.5 C 7 16.893 7.2386937 16.366844 7.6210938 15.964844 C 6.0367938 14.886844 5 13.07 5 11 C 5 7.6745 7.6744 5 11 5 C 14.326 5 17 7.6745 17 11 C 17 11.529 16.925828 12.039344 16.798828 12.527344 C 17.240828 13.037344 17.580531 13.644312 17.769531 14.320312 C 17.913531 14.364313 18.054406 14.418516 18.191406 14.478516 C 18.704406 13.424516 19 12.247 19 11 C 19 6.5936 15.406 3 11 3 z M 11 6 C 8.2445 6 6 8.2445 6 11 C 6 12.866 7.0417 14.478891 8.5625 15.337891 C 8.7243 15.272891 8.8907531 15.216641 9.0644531 15.181641 C 9.0814531 14.961641 9.125875 14.751016 9.171875 14.541016 C 7.885675 13.877016 7 12.552 7 11 C 7 8.785 8.7849 7 11 7 C 13.215 7 15 8.785 15 11 C 15 11.089 14.979609 11.171766 14.974609 11.259766 C 15.318609 11.384766 15.635547 11.563578 15.935547 11.767578 C 15.974547 11.516578 16 11.262 16 11 C 16 8.2445 13.756 6 11 6 z M 13.5 11.998047 L 13.5 12 A 3.5 3.5 0 0 0 10 15.5 A 3.5 3.5 0 0 0 10.052734 16.107422 A 1.5 1.5 0 0 0 9.5 16 A 1.5 1.5 0 0 0 8 17.5 A 1.5 1.5 0 0 0 9.5 19 L 10 19 L 17 19 A 2 2 0 0 0 19 17 A 2 2 0 0 0 17 15 A 2 2 0 0 0 16.960938 15 A 3.5 3.5 0 0 0 13.5 11.998047 z " style="color:#000000;text-indent:0;text-decoration:none;text-decoration-line:none;text-decoration-style:solid;text-decoration-color:#000000;text-transform:none;block-progression:tb;white-space:normal;isolation:auto;mix-blend-mode:normal;solid-color:#000000;fill:#ffffff;fill-opacity:1;color-rendering:auto;image-rendering:auto;shape-rendering:auto;opacity:1"/>
</svg>

<?xml version="1.0" encoding="UTF-8" standalone="no"?>
<svg id="svg2" xmlns:rdf="http://www.w3.org/1999/02/22-rdf-syntax-ns#" xmlns="http://www.w3.org/2000/svg" viewBox="0 0 22 22" width="22" version="1.1" xmlns:cc="http://creativecommons.org/ns#" height="22" xmlns:dc="http://purl.org/dc/elements/1.1/">
 <metadata id="metadata14">
  <rdf:RDF>
   <cc:Work rdf:about="">
    <dc:format>image/svg+xml</dc:format>
    <dc:type rdf:resource="http://purl.org/dc/dcmitype/StillImage"/>
    <dc:title/>
   </cc:Work>
  </rdf:RDF>
 </metadata>
 <path id="path6" style="color-rendering:auto;text-decoration-color:#000000;color:#000000;isolation:auto;mix-blend-mode:normal;shape-rendering:auto;solid-color:#000000;block-progression:tb;text-decoration-line:none;image-rendering:auto;white-space:normal;text-indent:0;text-transform:none;text-decoration-style:solid" d="m11 3c-4.4064 0-8 3.5936-8 8 0 2.968 1.634 5.561 4.0449 6.941-0.0263-0.144-0.0449-0.29-0.0449-0.441 0-0.607 0.2387-1.133 0.6211-1.535-1.5843-1.078-2.6211-2.895-2.6211-4.965 0-3.3255 2.6744-6 6-6 3.326 0 6 2.6745 6 6 0 0.529-0.074 1.039-0.201 1.527 0.442 0.51 0.782 1.117 0.971 1.793 0.144 0.044 0.284 0.099 0.421 0.159 0.513-1.054 0.809-2.232 0.809-3.479 0-4.4064-3.594-8-8-8zm0 3c-2.7555 0-5 2.2445-5 5 0 1.866 1.0417 3.479 2.5625 4.338 0.1618-0.065 0.3283-0.121 0.502-0.156 0.017-0.22 0.0614-0.431 0.1074-0.641-1.2862-0.664-2.1719-1.989-2.1719-3.541 0-2.215 1.7849-4 4-4 2.215 0 4 1.785 4 4 0 0.089-0.02 0.172-0.025 0.26 0.344 0.125 0.661 0.304 0.961 0.508 0.039-0.251 0.064-0.506 0.064-0.768 0-2.7555-2.244-5-5-5zm2.5 5.998v0.002a3.5 3.5 0 0 0 -3.5 3.5 3.5 3.5 0 0 0 0.053 0.607 1.5 1.5 0 0 0 -0.553 -0.107 1.5 1.5 0 0 0 -1.5 1.5 1.5 1.5 0 0 0 1.5 1.5h0.5 7a2 2 0 0 0 2 -2 2 2 0 0 0 -2 -2 2 2 0 0 0 -0.039 0 3.5 3.5 0 0 0 -3.461 -3.002z" fill="#fff"/>
</svg>
